!!!OTL: Schönstes M&auml;dchen auf dieser Erde (2-23), S. 58
!!!id: K1111
**kern
*clefG2
*k[b-]
*F:
{8f
8f
=1
4f
4.c
8a
8a
8a
=2
8a
8f
4.f}
8r
=3
{8a
8b-
=4
4.cc
8a
4b-
4a
=5
2g}
4r
=6
{8cc
8b-
=7
8.a
16a
4.a
8cc
8.dd
16cc
=8
8cc
8b-
4.g}
8r
=9
{8a
8b-
=10
4cc
8f
8g
4a
4g
=11
2f}
4r
=12
{8cc
8b-
=13
8.a
16a
4.a
8cc
8.dd
16cc
=14
8cc
8b-
4.g}
8r
=15
{8a
8b-
=16
4cc
8f
8g
4a
4g
=17
2f}
4r
==
*-
!!!minrhy: 16
!!!meters: 4/4 ]  ZZ[6
!!!cut: Schönstes M&auml;dchen auf dieser Erde (2-23), S. 58
!!!reg: Luxemburg
!!!trd: KINTZELE, Guillaume: An der Ucht, Bd. 2, Luxemburg 1927
!!!rhy1: X_X_  X__X__.X_X_X_  X_X_X__.0   (x2)
!!!rhy2: X_X_  X__.X_X__X__  X___0_
!!!key: K1111  16  F 4/4 ]  ZZ[6
!!!mod: SECHSTONSKALA DUR ?]  AMBITUS[9
!!!kad: 122121
!!!akz: 1-531_542_3352_531_3352_531_
!!!fot: 'a__b__c__d__c__d__
!!!for: 'a__b__c__d__c__d__
!!!fok: 'S__^d_Sd_^d_Sd_^d_
!! PHRAS[AUFTAKTIG]
!!!fkt: Bitte um Treue
!!!bem: in der Quelle mit einer 2. Stimme versehen
!! KINTZELE
!! PR[13] 2K[8] 2G[10] 3K[5] 3G[10] 4A[5] 4Ü[0] 5A[0] 6K[0] 6G[0]
!! 7K[0] 7G[0] 8A[0] MEHR[0] SI[38] ABS[40] SR[18] SP[20]
!! ST[12] 2k[13] 2g[35] 3k[0] 3g[0] 4d[3] 4ü[0] 5d[0] 6k[0] 6g[0]
!! 7k[0] 7g[0] 8d[0] mehr[0] si[50] dm[-12] sr[48] sp[3]
!! 1F[50] 2F[31] 3F[2] 4F[0] LF[0] 2P[17] 3P[0] 4P[0] TRI[0] DF[4] AB[42]
!! TF[0] U3K[0] U3[0] U4[0] U4Ü[0] U5[5] U6K[0] U6[0] U7K[0] U7[2]
!! N1[22] N2K[0] N2[15] N3K[0] N3[24] N4[12] N4Ü[0] N5[15] N6K[0] N6[5]
!!!n7k: 0] N7[0] O1[0] O2K[0] O2[0] O3K[0] O3[0] HÖ[0
!!!RNB: symbol: &auml;      = a umlaut  (UTF-8: Å„)
